X:1
T: The Ladies' Delight
C:
R:Reel
Q: 232
K:D
M:4/4
L:1/8
|:d2 fd AF DF|d2 fd eg fe|d2 fd AF DF|GE FD EB, B,2|
d2 fd AF DF|d2 fd eg fe|d2 fd AF DF|df eg fd d2:|
|:((3FED) AD BD AD|((3FED) AD B,E EG|((3FED) AD BD AD|GE FD A,D D2|
((3FED) AD BD AD|AB, ((3FED) B,E EG|FA df ec dB|eg fe fd d2:|
